_includes/icons/color-online-support.svg

<svg fill="#666" height="50" viewBox="0 0 48 48" width="50" xmlns="http://www.w3.org/2000/svg"><path d="m14 26c0 2.210938-1.789062 4-4 4-2.210937 0-4-1.789062-4-4 0-2.210937 1.789063-4 4-4 2.210938 0 4 1.789063 4 4z" fill="#ffa726"/><path d="m42 26c0 2.210938-1.789062 4-4 4-2.210937 0-4-1.789062-4-4 0-2.210937 1.789063-4 4-4 2.210938 0 4 1.789063 4 4z" fill="#ffa726"/><path d="m39 19c0-12.699219-30-8.300781-30 0v10c0 8.300781 6.699219 15 15 15s15-6.699219 15-15c0-1.800781 0-8.199219 0-10z" fill="#ffb74d"/><path d="m24 3c-9.398437 0-17 7.601563-17 17v3.398438l2 1.601562v-3l21-9.800781 9 9.800781v3l2-1.601562s0-2.097657 0-3.398438c0-8-5.699219-17-17-17z" fill="#ff5722"/><path d="m33 26c0 1.105469-.894531 2-2 2s-2-.894531-2-2 .894531-2 2-2 2 .894531 2 2z" fill="#784719"/><path d="m19 26c0 1.105469-.894531 2-2 2s-2-.894531-2-2 .894531-2 2-2 2 .894531 2 2z" fill="#784719"/><path d="m43 24c-.601562 0-1 .398438-1 1v-7c0-8.800781-7.199219-16-16-16h-7c-.601562 0-1 .398438-1 1 0 .601563.398438 1 1 1h7c7.699219 0 14 6.300781 14 14v10c0 .601563.398438 1 1 1 .601563 0 1-.398437 1-1v2c0 3.898438-3.101562 7-7 7h-11c-.601562 0-1 .398438-1 1 0 .601563.398438 1 1 1h11c5 0 9-4 9-9v-5c0-.601562-.398437-1-1-1z" fill="#757575"/><g fill="#37474f"><path d="m43 22h-1c-1.101562 0-2 .898438-2 2v4c0 1.101563.898438 2 2 2h1c1.101563 0 2-.898437 2-2v-4c0-1.101562-.898437-2-2-2z"/><path d="m26 38c0 1.105469-.894531 2-2 2s-2-.894531-2-2 .894531-2 2-2 2 .894531 2 2z"/></g></svg>

<svg xmlns="http://www.w3.org/2000/svg" viewBox="0 0 48 48" width="50" height="50" fill="#666"><path d="M 14 26 C 14 28.210938 12.210938 30 10 30 C 7.789063 30 6 28.210938 6 26 C 6 23.789063 7.789063 22 10 22 C 12.210938 22 14 23.789063 14 26 Z" fill="#ffa726"/><path d="M 42 26 C 42 28.210938 40.210938 30 38 30 C 35.789063 30 34 28.210938 34 26 C 34 23.789063 35.789063 22 38 22 C 40.210938 22 42 23.789063 42 26 Z" fill="#ffa726"/><path d="M 39 19 C 39 6.300781 9 10.699219 9 19 C 9 20.800781 9 27.199219 9 29 C 9 37.300781 15.699219 44 24 44 C 32.300781 44 39 37.300781 39 29 C 39 27.199219 39 20.800781 39 19 Z" fill="#ffb74d"/><path d="M 24 3 C 14.601563 3 7 10.601563 7 20 C 7 21.199219 7 23.398438 7 23.398438 L 9 25 L 9 22 L 30 12.199219 L 39 22 L 39 25 L 41 23.398438 C 41 23.398438 41 21.300781 41 20 C 41 12 35.300781 3 24 3 Z" fill="#ff5722"/><path d="M 33 26 C 33 27.105469 32.105469 28 31 28 C 29.894531 28 29 27.105469 29 26 C 29 24.894531 29.894531 24 31 24 C 32.105469 24 33 24.894531 33 26 Z" fill="#784719"/><path d="M 19 26 C 19 27.105469 18.105469 28 17 28 C 15.894531 28 15 27.105469 15 26 C 15 24.894531 15.894531 24 17 24 C 18.105469 24 19 24.894531 19 26 Z" fill="#784719"/><path d="M 43 24 C 42.398438 24 42 24.398438 42 25 L 42 18 C 42 9.199219 34.800781 2 26 2 L 19 2 C 18.398438 2 18 2.398438 18 3 C 18 3.601563 18.398438 4 19 4 L 26 4 C 33.699219 4 40 10.300781 40 18 L 40 28 C 40 28.601563 40.398438 29 41 29 C 41.601563 29 42 28.601563 42 28 L 42 30 C 42 33.898438 38.898438 37 35 37 L 24 37 C 23.398438 37 23 37.398438 23 38 C 23 38.601563 23.398438 39 24 39 L 35 39 C 40 39 44 35 44 30 L 44 25 C 44 24.398438 43.601563 24 43 24 Z" fill="#757575"/><path d="M 43 22 L 42 22 C 40.898438 22 40 22.898438 40 24 L 40 28 C 40 29.101563 40.898438 30 42 30 L 43 30 C 44.101563 30 45 29.101563 45 28 L 45 24 C 45 22.898438 44.101563 22 43 22 Z" fill="#37474f"/><path d="M 26 38 C 26 39.105469 25.105469 40 24 40 C 22.894531 40 22 39.105469 22 38 C 22 36.894531 22.894531 36 24 36 C 25.105469 36 26 36.894531 26 38 Z" fill="#37474f"/></svg>
